dist/img/svg/services/conditioning/wall-channel-cassette.svg

<svg width="20" height="16" viewBox="0 0 20 16" fill="none" xmlns="http://www.w3.org/2000/svg">
<path d="M10.9697 2.29063V5.85592C10.9697 6.00824 11.1009 6.13166 11.2627 6.13166L18.4443 6.13166C18.6061 6.13166 18.7373 6.00824 18.7373 5.85592V2.29063C18.7373 2.13831 18.6061 2.01489 18.4443 2.01489L11.2627 2.01489C11.1009 2.01489 10.9697 2.13835 10.9697 2.29063ZM11.5557 3.75478L18.1514 3.75478V4.39173H11.5557V3.75478ZM11.5557 5.58019V4.94324H18.1514V5.58019H11.5557ZM18.1514 2.56636V3.20331L11.5557 3.20331V2.56636L18.1514 2.56636Z" fill="#78C081"/>
<path d="M1.55567 2.01489C1.39387 2.01489 1.2627 2.13831 1.2627 2.29063V5.85592C1.2627 6.00824 1.39387 6.13166 1.55567 6.13166L8.7373 6.13166C8.8991 6.13166 9.03027 6.00824 9.03027 5.85592V2.29063C9.03027 2.13831 8.8991 2.01489 8.7373 2.01489L1.55567 2.01489ZM1.84863 3.75478L8.44434 3.75478V4.39173H1.84863V3.75478ZM1.84863 5.58019V4.94324H8.44434V5.58019H1.84863ZM8.44434 2.56636V3.20331L1.84863 3.20331V2.56636L8.44434 2.56636Z" fill="#78C081"/>
<path d="M14.0939 15.0384C14.2083 14.9307 14.2083 14.7561 14.0939 14.6485C13.9795 14.5408 13.794 14.5408 13.6796 14.6485L13.3905 14.9205V14.8435C13.3905 14.7188 13.4255 14.6719 13.4952 14.5784C13.5843 14.459 13.7062 14.2954 13.7062 13.9966C13.7062 13.6978 13.5843 13.5343 13.4952 13.4149C13.4255 13.3214 13.3905 13.2745 13.3905 13.1498C13.3905 13.0252 13.4255 12.9783 13.4952 12.8848C13.5843 12.7654 13.7062 12.6018 13.7062 12.3031C13.7062 12.2157 13.6956 12.1403 13.6786 12.0738H16.5538C16.6059 12.1456 16.6322 12.1954 16.6322 12.3031C16.6322 12.4277 16.5972 12.4746 16.5275 12.568C16.4384 12.6874 16.3165 12.851 16.3165 13.1498C16.3165 13.4486 16.4384 13.6122 16.5275 13.7316C16.5972 13.8251 16.6321 13.872 16.6321 13.9966C16.6321 14.1213 16.5971 14.1682 16.5275 14.2617C16.4384 14.3811 16.3165 14.5446 16.3165 14.8435V14.9205L16.0274 14.6485C15.913 14.5408 15.7275 14.5408 15.6131 14.6485C15.5559 14.7023 15.5273 14.7729 15.5273 14.8435C15.5273 14.914 15.5559 14.9846 15.6131 15.0385L16.4023 15.7812C16.5167 15.8889 16.7022 15.8889 16.8166 15.7812L17.6058 15.0384C17.7202 14.9307 17.7202 14.7561 17.6058 14.6485C17.4914 14.5408 17.3059 14.5408 17.1915 14.6485L16.9024 14.9205V14.8435C16.9024 14.7188 16.9374 14.6719 17.0071 14.5784C17.0961 14.459 17.2181 14.2954 17.2181 13.9966C17.2181 13.6978 17.0961 13.5343 17.0071 13.4149C16.9374 13.3214 16.9024 13.2744 16.9024 13.1498C16.9024 13.0252 16.9374 12.9783 17.0071 12.8848C17.0962 12.7654 17.2181 12.6018 17.2181 12.3031C17.2181 12.2158 17.2075 12.1403 17.1905 12.0738H18.918C19.5146 12.0738 20 11.6169 20 11.0554V1.84504C20 1.28354 19.5146 0.82666 18.918 0.82666L5.79062 0.82666C5.62883 0.82666 5.49766 0.950079 5.49766 1.1024C5.49766 1.25471 5.62883 1.37813 5.79062 1.37813L18.918 1.37813C19.1915 1.37813 19.4141 1.58758 19.4141 1.84504V11.0553C19.4141 11.3128 19.1915 11.5222 18.918 11.5222H16.907C16.9042 11.5025 16.9024 11.4813 16.9024 11.4564C16.9024 11.3318 16.9374 11.2849 17.0071 11.1914C17.0639 11.1153 17.1339 11.021 17.1773 10.8854H18.4443C18.6061 10.8854 18.7373 10.762 18.7373 10.6097V7.04442C18.7373 6.8921 18.6061 6.76868 18.4443 6.76868L11.2627 6.76868C11.1009 6.76868 10.9697 6.8921 10.9697 7.04442V10.6097C10.9697 10.762 11.1009 10.8854 11.2627 10.8854H13.0075C12.9194 11.0039 12.8046 11.1664 12.8046 11.4564C12.8046 11.4792 12.8055 11.501 12.8068 11.5222H11.6828C11.521 11.5222 11.3898 11.6457 11.3898 11.798C11.3898 11.9503 11.521 12.0737 11.6828 12.0737H13.0418C13.0939 12.1456 13.1202 12.1953 13.1202 12.3031C13.1202 12.4276 13.0852 12.4745 13.0155 12.568C12.9265 12.6874 12.8046 12.851 12.8046 13.1497C12.8046 13.4486 12.9265 13.6121 13.0155 13.7316C13.0852 13.825 13.1202 13.872 13.1202 13.9966C13.1202 14.1212 13.0852 14.1681 13.0155 14.2616C12.9265 14.381 12.8046 14.5446 12.8046 14.8434V14.9205L12.5155 14.6484C12.4011 14.5407 12.2156 14.5407 12.1012 14.6484C12.044 14.7023 12.0154 14.7729 12.0154 14.8434C12.0154 14.914 12.044 14.9846 12.1012 15.0384L12.8904 15.7812C13.0048 15.8889 13.1903 15.8889 13.3047 15.7812L14.0939 15.0384ZM18.1514 9.14552H11.5557V8.50857H18.1514V9.14552ZM18.1514 7.32015V7.9571L11.5557 7.9571V7.32015L18.1514 7.32015ZM11.5557 10.334V9.69703H18.1514V10.334H11.5557ZM13.3905 11.4564C13.3905 11.3318 13.4255 11.2849 13.4952 11.1914C13.552 11.1153 13.622 11.021 13.6654 10.8854H16.5195C16.4313 11.0039 16.3165 11.1664 16.3165 11.4564C16.3165 11.4792 16.3174 11.501 16.3188 11.5222H13.3952C13.3923 11.5025 13.3905 11.4813 13.3905 11.4564Z" fill="#78C081"/>
<path d="M5.90614 14.6485C5.84896 14.7023 5.82032 14.7729 5.82032 14.8435C5.82032 14.914 5.84892 14.9846 5.90614 15.0385L6.69532 15.7812C6.80974 15.8889 6.99524 15.8889 7.10962 15.7812L7.8988 15.0385C8.01321 14.9307 8.01321 14.7562 7.8988 14.6485C7.78438 14.5408 7.59888 14.5408 7.4845 14.6485L7.19544 14.9206V14.8435C7.19544 14.7189 7.23044 14.6719 7.30013 14.5784C7.38915 14.459 7.5111 14.2954 7.5111 13.9967C7.5111 13.6979 7.38915 13.5343 7.30013 13.4149C7.2304 13.3214 7.19544 13.2745 7.19544 13.1498C7.19544 13.0252 7.23044 12.9783 7.30013 12.8849C7.38919 12.7654 7.51114 12.6019 7.51114 12.3031C7.51114 12.2158 7.50052 12.1403 7.48356 12.0738H10.3157C10.4775 12.0738 10.6086 11.9504 10.6086 11.7981C10.6086 11.6457 10.4775 11.5223 10.3157 11.5223H7.20005C7.19724 11.5026 7.19544 11.4814 7.19544 11.4564C7.19544 11.3319 7.23044 11.285 7.30013 11.1915C7.35688 11.1154 7.42692 11.0211 7.47032 10.8855H8.73735C8.89915 10.8855 9.03032 10.7621 9.03032 10.6098V7.04449C9.03032 6.89218 8.89915 6.76876 8.73735 6.76876L1.55571 6.76876C1.39392 6.76876 1.26274 6.89218 1.26274 7.04449V10.6098C1.26274 10.7621 1.39392 10.8855 1.55571 10.8855H3.30056C3.21239 11.004 3.09759 11.1665 3.09759 11.4564C3.09759 11.4793 3.09853 11.501 3.09985 11.5223H1.08208C0.808526 11.5223 0.585985 11.3129 0.585985 11.0554V1.84504C0.585985 1.58758 0.808526 1.37813 1.08208 1.37813H4.42349C4.58528 1.37813 4.71645 1.25471 4.71645 1.1024C4.71645 0.950079 4.58528 0.82666 4.42349 0.82666L1.08208 0.82666C0.48544 0.82666 4.76837e-05 1.2835 4.76837e-05 1.84504V11.0553C4.76837e-05 11.6169 0.48544 12.0737 1.08208 12.0737H3.33489C3.387 12.1456 3.41329 12.1953 3.41329 12.3031C3.41329 12.4276 3.37829 12.4745 3.3086 12.568C3.21958 12.6874 3.09763 12.851 3.09763 13.1497C3.09763 13.4486 3.21958 13.6121 3.3086 13.7316C3.37829 13.825 3.41329 13.872 3.41329 13.9966C3.41329 14.1212 3.37829 14.1681 3.3086 14.2616C3.21954 14.381 3.09763 14.5446 3.09763 14.8434V14.9205L2.80856 14.6484C2.69415 14.5407 2.50864 14.5407 2.39427 14.6484C2.33708 14.7023 2.30845 14.7729 2.30845 14.8434C2.30845 14.914 2.33704 14.9846 2.39427 15.0384L3.18345 15.7812C3.29786 15.8889 3.48337 15.8889 3.59774 15.7812L4.38692 15.0384C4.50134 14.9307 4.50134 14.7561 4.38692 14.6485C4.27251 14.5408 4.087 14.5408 3.97263 14.6485L3.68356 14.9205V14.8435C3.68356 14.7188 3.71856 14.6719 3.78825 14.5784C3.87727 14.459 3.99923 14.2954 3.99923 13.9966C3.99923 13.6978 3.87727 13.5343 3.78825 13.4149C3.71853 13.3214 3.68356 13.2745 3.68356 13.1498C3.68356 13.0252 3.71856 12.9783 3.78825 12.8848C3.87731 12.7654 3.99923 12.6018 3.99923 12.3031C3.99923 12.2157 3.9886 12.1403 3.97165 12.0738H6.84681C6.89892 12.1456 6.9252 12.1954 6.9252 12.3031C6.9252 12.4277 6.89021 12.4746 6.82052 12.568C6.73146 12.6874 6.6095 12.851 6.6095 13.1498C6.6095 13.4486 6.73145 13.6122 6.82048 13.7316C6.8902 13.8251 6.92517 13.872 6.92517 13.9966C6.92517 14.1213 6.89017 14.1682 6.82048 14.2617C6.73145 14.3811 6.6095 14.5446 6.6095 14.8435V14.9205L6.32044 14.6485C6.20606 14.5408 6.02056 14.5408 5.90614 14.6485ZM8.44438 9.14552H1.84868V8.50857H8.44438V9.14552ZM8.44438 7.32015V7.9571L1.84868 7.9571V7.32015L8.44438 7.32015ZM1.84868 10.334V9.69703H8.44438V10.334H1.84868ZM3.68356 11.4564C3.68356 11.3318 3.71856 11.2849 3.78825 11.1914C3.84501 11.1153 3.91505 11.021 3.95841 10.8854H6.81247C6.72431 11.0039 6.6095 11.1664 6.6095 11.4564C6.6095 11.4792 6.61044 11.501 6.61181 11.5222H3.68817C3.68536 11.5025 3.68356 11.4813 3.68356 11.4564Z" fill="#78C081"/>
</svg>

<svg width="20" height="16" fill="none" xmlns="http://www.w3.org/2000/svg"><path d="M10.97 2.29v3.566c0 .152.13.276.293.276h7.181c.162 0 .293-.124.293-.276V2.29c0-.153-.13-.276-.293-.276h-7.181c-.162 0-.293.123-.293.276zm.586 1.465h6.595v.637h-6.595v-.637zm0 1.825v-.637h6.595v.637h-6.595zm6.595-3.014v.637h-6.595v-.637h6.595zM1.556 2.015c-.162 0-.293.123-.293.276v3.565c0 .152.13.276.293.276h7.181c.162 0 .293-.124.293-.276V2.29c0-.153-.13-.276-.293-.276H1.556zm.293 1.74h6.595v.637H1.85v-.637zm0 1.825v-.637h6.595v.637H1.85zm6.595-3.014v.637H1.85v-.637h6.595z" fill="#78C081"/><path d="M14.094 15.038a.264.264 0 000-.39.306.306 0 00-.414 0l-.29.273v-.077c0-.125.035-.172.105-.266a.885.885 0 00.211-.581.885.885 0 00-.21-.582c-.07-.094-.106-.14-.106-.265s.035-.172.105-.265a.885.885 0 00.211-.582.918.918 0 00-.027-.23h2.875a.332.332 0 01.078.23c0 .125-.035.172-.105.265a.885.885 0 00-.21.582c0 .299.121.462.21.582.07.093.105.14.105.265 0 .124-.035.171-.105.265a.885.885 0 00-.21.582v.077l-.29-.272a.306.306 0 00-.414 0 .267.267 0 00-.086.195c0 .07.029.14.086.195l.79.742c.114.108.3.108.414 0l.789-.743a.264.264 0 000-.39.306.306 0 00-.415 0l-.289.273v-.077c0-.125.035-.172.105-.266a.879.879 0 00.211-.581c0-.3-.122-.463-.21-.582-.07-.094-.106-.14-.106-.265s.035-.172.105-.265a.885.885 0 00.211-.582.919.919 0 00-.027-.23h1.727c.597 0 1.082-.456 1.082-1.018v-9.21c0-.561-.485-1.018-1.082-1.018H5.791c-.162 0-.293.123-.293.275 0 .153.13.276.293.276h13.127c.274 0 .496.21.496.467v9.21c0 .258-.223.467-.496.467h-2.011a.459.459 0 01-.005-.066c0-.124.035-.171.105-.265a.986.986 0 00.17-.306h1.267c.162 0 .293-.123.293-.275V7.044c0-.152-.13-.275-.293-.275h-7.181c-.162 0-.293.123-.293.275v3.566c0 .152.13.275.293.275h1.745a.876.876 0 00-.201.637h-1.124c-.162 0-.293.124-.293.276 0 .152.131.276.293.276h1.359a.332.332 0 01.078.23c0 .124-.035.17-.104.264a.885.885 0 00-.211.582c0 .299.122.462.21.582.07.093.105.14.105.265 0 .124-.035.171-.104.265a.885.885 0 00-.211.581v.078l-.29-.273a.306.306 0 00-.414 0 .267.267 0 00-.086.195c0 .071.029.142.086.195l.79.743c.114.108.3.108.414 0l.789-.743zm4.057-5.892h-6.595v-.637h6.595v.637zm0-1.826v.637h-6.595V7.32h6.595zm-6.595 3.014v-.637h6.595v.637h-6.595zm1.835 1.122c0-.124.034-.171.104-.265a.986.986 0 00.17-.306h2.855a.875.875 0 00-.201.637h-2.924a.444.444 0 01-.005-.066z" fill="#78C081"/><path d="M5.906 14.649a.267.267 0 00-.086.195c0 .07.029.14.086.195l.79.742c.114.108.3.108.414 0l.789-.742a.264.264 0 000-.39.306.306 0 00-.415 0l-.289.272v-.077c0-.125.035-.172.105-.266a.885.885 0 00.211-.581.885.885 0 00-.21-.582c-.07-.094-.106-.14-.106-.265s.035-.172.105-.265a.882.882 0 00.211-.582.92.92 0 00-.027-.23h2.832c.161 0 .293-.123.293-.275 0-.152-.132-.276-.293-.276H7.2a.458.458 0 01-.005-.066c0-.124.035-.171.105-.264.057-.077.127-.17.17-.306h1.267c.162 0 .293-.124.293-.276V7.044c0-.152-.13-.275-.293-.275H1.556c-.162 0-.293.123-.293.275v3.566c0 .152.13.276.293.276H3.3a.876.876 0 00-.201.636H1.082c-.273 0-.496-.21-.496-.467v-9.21c0-.257.223-.467.496-.467h3.341c.162 0 .293-.123.293-.276 0-.152-.13-.275-.293-.275h-3.34C.484.827 0 1.284 0 1.845v9.21c0 .562.485 1.019 1.082 1.019h2.253a.332.332 0 01.078.23c0 .124-.035.17-.104.264a.885.885 0 00-.211.582c0 .299.122.462.21.582.07.093.105.14.105.265 0 .124-.035.171-.104.265a.885.885 0 00-.211.581v.078l-.29-.273a.306.306 0 00-.414 0 .267.267 0 00-.086.195c0 .071.029.142.086.195l.79.743c.114.108.3.108.414 0l.789-.743a.264.264 0 000-.39.306.306 0 00-.414 0l-.29.273v-.077c0-.125.036-.172.105-.266A.885.885 0 004 13.997c0-.3-.122-.463-.21-.582-.07-.094-.105-.14-.105-.265s.035-.172.104-.265A.885.885 0 004 12.303a.92.92 0 00-.027-.23h2.875a.332.332 0 01.078.23c0 .125-.035.172-.104.265a.885.885 0 00-.212.582c0 .299.122.462.211.582.07.093.105.14.105.265 0 .124-.035.171-.105.265-.089.12-.21.283-.21.582v.077l-.29-.272a.306.306 0 00-.414 0zm2.538-5.503H1.85v-.637h6.595v.637zm0-1.826v.637H1.85V7.32h6.595zM1.85 10.334v-.637h6.595v.637H1.85zm1.835 1.122c0-.124.035-.171.104-.265a.986.986 0 00.17-.306h2.854a.876.876 0 00-.2.637H3.688a.457.457 0 01-.004-.066z" fill="#78C081"/></svg>
